public/images/circle-star.svg

<svg fill="none" height="59" viewBox="0 0 60 59" width="60" xmlns="http://www.w3.org/2000/svg" xmlns:xlink="http://www.w3.org/1999/xlink"><clipPath id="a"><path d="m.93457 0h59v59h-59z"/></clipPath><g clip-path="url(#a)"><path d="m30.4346 59c16.2924 0 29.5-13.2076 29.5-29.5s-13.2076-29.5-29.5-29.5-29.50003 13.2076-29.50003 29.5 13.20763 29.5 29.50003 29.5z" fill="#00c3cd"/><path d="m15.7947 29.41c8.52-1.41 13.4-6.31 14.78-14.55 1.36 8.23 6.25 13.12 14.5 14.5-8.25 1.36-13.13 6.26-14.55 14.76-.41-3.92-1.92-7.26-4.66-10.01-2.76-2.76-6.1-4.29-10.08-4.7z" fill="#fff"/></g></svg>

<svg width="60" height="59" viewBox="0 0 60 59" fill="none" xmlns="http://www.w3.org/2000/svg">
<g clip-path="url(#clip0_205_1628)">
<path d="M30.4346 59C46.727 59 59.9346 45.7924 59.9346 29.5C59.9346 13.2076 46.727 0 30.4346 0C14.1422 0 0.93457 13.2076 0.93457 29.5C0.93457 45.7924 14.1422 59 30.4346 59Z" fill="#00C3CD"/>
<path d="M15.7947 29.41C24.3147 28 29.1947 23.1 30.5747 14.86C31.9347 23.09 36.8247 27.98 45.0747 29.36C36.8247 30.72 31.9447 35.62 30.5247 44.12C30.1147 40.2 28.6047 36.86 25.8647 34.11C23.1047 31.35 19.7647 29.82 15.7847 29.41H15.7947Z" fill="white"/>
</g>
<defs>
<clipPath id="clip0_205_1628">
<rect width="59" height="59" fill="white" transform="translate(0.93457)"/>
</clipPath>
</defs>
</svg>
